src/lib/packages/icons/src/assets/filled/map-location.svg

<svg width="24" height="24" viewBox="0 0 24 24" fill="none" xmlns="http://www.w3.org/2000/svg">
<path d="M4.814 9.73804L3.98801 10.1509C3.38201 10.4539 2.99899 11.073 2.99899 11.75V20.1699C2.99899 20.9199 3.77901 21.4001 4.44901 21.0701L7.48401 19.543C7.58501 19.492 7.64899 19.3879 7.64899 19.2749V14.3831C7.64899 14.3041 7.61801 14.23 7.56201 14.175C6.44101 13.067 5.49601 11.6879 5.23801 9.97095C5.20801 9.76595 4.998 9.64604 4.814 9.73804ZM12.82 16.9199L11.99 17.48L11.16 16.9199C11.16 16.9199 10.28 16.3409 9.62 15.8789C9.422 15.7399 9.14999 15.884 9.14999 16.126V19.1621C9.14999 19.2871 9.228 19.3991 9.345 19.4431L14.445 21.3579C14.641 21.4309 14.85 21.2859 14.85 21.0769V16.1089C14.85 15.8669 14.579 15.7241 14.381 15.8611C13.713 16.3251 12.82 16.9199 12.82 16.9199ZM19.55 8.66992L18.999 8.94507C18.826 9.01807 18.827 9.20209 18.823 9.28809C18.733 11.3171 17.694 12.91 16.436 14.165C16.381 14.22 16.349 14.294 16.349 14.373V20.9341C16.349 21.1571 16.584 21.3019 16.784 21.2019L20.009 19.5811C20.619 19.2711 20.999 18.6509 20.999 17.9709V9.56104C21 8.67004 20.22 8.33992 19.55 8.66992ZM11.99 3.66992C9.04999 3.66992 6.66 6.05 6.66 9C6.66 12.33 9.98999 14.3299 11.99 15.6699C13.99 14.3299 17.33 12.33 17.33 9C17.33 6.05 14.94 3.66992 11.99 3.66992ZM11.99 10.6699C11.07 10.6699 10.33 9.92 10.33 9C10.33 8.08 11.07 7.33008 11.99 7.33008C12.91 7.33008 13.66 8.08 13.66 9C13.66 9.92 12.91 10.6699 11.99 10.6699Z" fill="currentColor"/>
</svg>

<svg xmlns="http://www.w3.org/2000/svg" width="24" height="24" fill="none"><path fill="currentColor" d="m4.814 9.738-.826.413a1.788 1.788 0 0 0-.989 1.599v8.42c0 .75.78 1.23 1.45.9l3.035-1.527a.3.3 0 0 0 .165-.268v-4.892a.29.29 0 0 0-.087-.208c-1.121-1.108-2.066-2.487-2.324-4.204-.03-.205-.24-.325-.424-.233Zm8.006 7.182-.83.56-.83-.56s-.88-.58-1.54-1.041a.3.3 0 0 0-.47.247v3.036a.3.3 0 0 0 .195.281l5.1 1.915a.3.3 0 0 0 .405-.281v-4.968a.3.3 0 0 0-.469-.248c-.668.464-1.561 1.059-1.561 1.059Zm6.73-8.25-.551.275c-.173.073-.172.257-.176.343-.09 2.03-1.129 3.622-2.387 4.877a.294.294 0 0 0-.087.208v6.561a.3.3 0 0 0 .435.268l3.225-1.62c.61-.31.99-.931.99-1.611V9.56c.001-.89-.779-1.22-1.449-.89Zm-7.56-5C9.05 3.67 6.66 6.05 6.66 9c0 3.33 3.33 5.33 5.33 6.67 2-1.34 5.34-3.34 5.34-6.67a5.33 5.33 0 0 0-5.34-5.33Zm0 7c-.92 0-1.66-.75-1.66-1.67 0-.92.74-1.67 1.66-1.67.92 0 1.67.75 1.67 1.67 0 .92-.75 1.67-1.67 1.67Z"/></svg>
